X: 1
T: Evit Gabriel
C: Daniel Thonon
S: library.yale.edu 2009
S: Fiddle Hell 2021 handout
Z: unknown
M: 2/4
L: 1/16
K: Em
|:\
"Em"EFGF EFGF | EFGA BEGB | "C"cBAG \
[1,3 "D"FGAF | "G"BAGB "B"F2F2 :|\
[2,4 "D"FGAB, | "Em"E8 :|
|:\
"C"eAAe "D"dcBc | "G"dGGd cBAG | "Am"FGAc "B"BAGF |\
[1,3 "Em"EFGA BEGB :|[2,4 "Em"EG"B"FD "Em"E4 :|
